X:1
T:Agawam, 87.87
T:Agawam, 87.87
T:Thoms Whittemore, 1841
T:Public Domain Courtesy of the Cyber Hymnal™
C:Thoms Whittemore, 1841
Z:Public Domain
Z:Courtesy of the Cyber Hymnal™
%%score ( 1 2 ) ( 3 4 )
L:1/8
Q:1/4=110
M:4/4
K:C
V:1 treble 
V:2 treble 
V:3 bass 
V:4 bass 
V:1
 C2 ([CE]>[DF]) [EG]2 [CE]2 | [Cc]2 A2 [FA]2 [CE]2 | [CG]2 [CE]2 [CA]2 [CG]2 | %3
 [B,F]2 [CE]2 [B,D]4 | [CE]2 [DG]2 [DB]2 [Dd]2 | [^Fd]2 [Fc]2 [Gc]2 [GB]2 | %6
 [Gc]2 [Ge]2 [FA]2 [Fd]2 | [Ec]2 [DB]2 [Ec]4 |] %8
V:2
 C2 x6 | x2 (CF) x4 | x8 | x8 | x8 | x8 | x8 | x8 |] %8
V:3
 [C,G,]2 [C,G,]2 [C,G,]2 [C,G,]2 | [E,G,]2 [F,C]2 [C,C]2 [C,C]2 | [E,G,]2 [C,G,]2 F,2 [E,G,]2 | %3
 [D,G,]2 [C,G,]2 [G,,G,]4 | [G,,G,]2 [G,,B,]2 G,2 [G,B,]2 | [D,D]2 [D,D]2 [G,E]2 [G,D]2 | %6
 [E,C]2 [C,C]2 F,2 [D,A,]2 | G,2 [G,,G,]2 [C,G,]4 |] %8
V:4
 x8 | x8 | x4 F,2 x2 | x8 | x4 G,2 x2 | x8 | x4 F,2 x2 | G,2 x6 |] %8

